!!!SOCIAL_FUNCTION:	songs of the hand-game
!!!PDT:	1936
!!!OTL: No_42_The_Raven_Says.krn
!!!REG: Oklahoma and Montana
!!!LANG: Tone
!!!LING_GROUP: Algonquin
**kern	**kern
*staff2	*staff1
=1-	=1-
=	=
*clefF4	*clefF4
*k[f#c#g#d#]	*k[f#c#g#d#]
*M3/4	*M3/4
8r	8.B\L
8GG#/	.
.	16B\Jk
4r	4B\
4r	16A\LK
.	8.A\J
=2	=2
*M3/8	*M3/8
8GG#/L	4B\
8GG#/J	.
8r	16G#\
.	16r
=3	=3
*M5/8	*M5/8
8r	16B\LK
.	8B\
8GG#/	.
.	16B\Jk
8r	4B\
8GG#/	.
8r	8A\
=4	=4
*M2/4	*M2/4
8GG#/	8B\L
8r	8F#\J
8GG#/	8E\
8r	8r
=5	=5
8r	8.A\L
8GG#/	.
.	16A\Jk
8r	4B\
8GG#/	.
=6	=6
*M5/8	*M5/8
8r	8A\L
8GG#/	8B\
8r	8B\
8GG#/	8.A\
8r	.
.	16F#\Jk
=7	=7
*M3/4	*M3/4
8GG#/	4E\
8r	.
8GG#/	8E\
8r	8r
8GG#/	8A\L
8r	8F#\J
=8	=8
8GG#/	4E\
8r	.
8GG#/	4E\
8r	.
8GG#/	8C#/
8r	8r
=9	=9
*M2/4	*M2/4
8r	8E\L
8GG#/	8E\J
8r	8A\L
8GG#/	16F#\L
.	16F#\JJ
=10	=10
*M3/8	*M3/8
8r	8E\
8GG#/	4E\
8r	.
=11	=11
*M2/4	*M2/4
8GG#/	8BB/L
8r	8BB/J
8GG#/	8.BB/L
8r	.
.	16BB/Jk
=12	=12
8GG#/	4BB/
8r	.
8GG#/	4r
8r	.
=13:|!	=13:|!
=	=
*M2/4	*M2/4
8GG#/	8BB/L
8r	8BB/J
8GG#/L	8.BB/L
8GG#/J	.
.	16BB/Jk
=14	=14
8GG#/	4BB/
8r	.
8GG#/	8BB/
8r	8r
==	==
*-	*-
